svgs/regular/prescription-bottle-medical.svg

<svg xmlns="http://www.w3.org/2000/svg" viewBox="0 0 384 512"><!--! Font Awesome Pro 6.6.0 by @fontawesome - https://fontawesome.com License - https://fontawesome.com/license (Commercial License) Copyright 2024 Fonticons, Inc. --><path d="M48 48l288 0 0 32L48 80l0-32zM32 0C14.3 0 0 14.3 0 32L0 96c0 17.7 14.3 32 32 32l320 0c17.7 0 32-14.3 32-32l0-64c0-17.7-14.3-32-32-32L32 0zm0 160l0 288c0 35.3 28.7 64 64 64l192 0c35.3 0 64-28.7 64-64l0-288-48 0 0 288c0 8.8-7.2 16-16 16L96 464c-8.8 0-16-7.2-16-16l0-288-48 0zm133.3 80l0 37.3-37.3 0c-8.8 0-16 7.2-16 16l0 21.3c0 8.8 7.2 16 16 16l37.3 0 0 37.3c0 8.8 7.2 16 16 16l21.3 0c8.8 0 16-7.2 16-16l0-37.3 37.3 0c8.8 0 16-7.2 16-16l0-21.3c0-8.8-7.2-16-16-16l-37.3 0 0-37.3c0-8.8-7.2-16-16-16l-21.3 0c-8.8 0-16 7.2-16 16z"/></svg>

<svg xmlns="http://www.w3.org/2000/svg" viewBox="0 0 384 512"><!--! Font Awesome Pro 6.4.0 by @fontawesome - https://fontawesome.com License - https://fontawesome.com/license (Commercial License) Copyright 2023 Fonticons, Inc. --><path d="M48 48H336V80H48V48zM32 0C14.3 0 0 14.3 0 32V96c0 17.7 14.3 32 32 32H352c17.7 0 32-14.3 32-32V32c0-17.7-14.3-32-32-32H32zm0 160V448c0 35.3 28.7 64 64 64H288c35.3 0 64-28.7 64-64V160H304V448c0 8.8-7.2 16-16 16H96c-8.8 0-16-7.2-16-16V160H32zm133.3 80v37.3H128c-8.8 0-16 7.2-16 16v21.3c0 8.8 7.2 16 16 16h37.3V368c0 8.8 7.2 16 16 16h21.3c8.8 0 16-7.2 16-16V330.7H256c8.8 0 16-7.2 16-16V293.3c0-8.8-7.2-16-16-16l-37.3 0V240c0-8.8-7.2-16-16-16H181.3c-8.8 0-16 7.2-16 16z"/></svg>
